X:1
T:Bury Me Beneath the Willow
M:4/4
L:1/8
K:G
 d3 e d2B-A| G3 A G2 E2| D2 GA BB cB| A8| d3 e d2B-A| G3 A G2 E2| B3 cB DA A|\
 G8|
